svg/light_flood_up.svg

<svg xmlns="http://www.w3.org/2000/svg" viewBox="0 0 24 24"><path d="M8 15H2v-2h6c.55 0 1 .45 1 1s-.45 1-1 1m8.72 3.9L10.69 4.08l-1.86.76.38.92-4.8 4.12.86 2.12H8c1.1 0 2 .9 2 2s-.9 2-2 2H6.9l1.28 3.14 6.32-.41.37.92zm4.09-1.19-2.31-.96.76-1.85 2.31.96zm-2.03-7.28L18 8.58l2.79-1.15.76 1.85zm-3.59-5.36-1.85-.76L14.3 2l1.85.77z"/></svg>

<svg xmlns="http://www.w3.org/2000/svg" id="mdi-light-flood-up" viewBox="0 0 24 24"><path d="M8 15H2V13H8C8.55 13 9 13.45 9 14C9 14.55 8.55 15 8 15M16.72 18.9L10.69 4.08L8.83 4.84L9.21 5.76L4.41 9.88L5.27 12H8C9.1 12 10 12.9 10 14S9.1 16 8 16H6.9L8.18 19.14L14.5 18.73L14.87 19.65L16.72 18.9M20.81 17.71L18.5 16.75L19.26 14.9L21.57 15.86L20.81 17.71M18.78 10.43L18 8.58L20.79 7.43L21.55 9.28L18.78 10.43M15.19 5.07L13.34 4.31L14.3 2L16.15 2.77L15.19 5.07Z" /></svg>
